X:1
T:Title
%%score { ( 1 3 ) | ( 2 4 ) }
L:1/8
Q:1/4=120
M:6/4
K:Eb
V:1 treble nm="Grand Piano"
V:3 treble 
V:2 bass 
V:4 bass 
V:1
 [B,G]4 [B,G]2 [G,E]2 [A,F]2 [B,G]2 | [CA]4 [=B,E]2 [_B,G]6 | %2
w: Geo.~C.~Stebbins * * * *||
 [A,F]4 [A,F]2[K:bass] [F,D]2 [G,E]2[K:treble] [A,F]2 | [B,G]4 [A,F]2 [G,E]6 | %4
w: ||
 [B,G]4 [B,G]2 [G,E]2 [A,F]2 [B,G]2 | [CA]4 [=B,E]2 [_B,G]6 | [DF]4 [DB]2 [C=A]2 [DB]2 [Ec]2 | %7
w: |||
 [Fd]4 [Ec]2 [DB]6 | [Ge] .[Ge]3 [GB]2 [_Gd]4 [Gc]2 | B4- [FB-]2 [EB]6 | %10
w: |||
 [B,GB]2 [B,GB]2 [FB]2 [=Ec]4 [GB]2 | A12 | [B,DA]2 [B,DA]2 [B,DA]2 [DG]4 [B,DF]2 | [EB]12 | %14
w: ||||
 [EB]4 [Ec]2 [DB]2 [B,F]2 [DAB]2 | [GB]12 | [Ge]2 [Ge]2 [GB]2 [_Gd]4 [Gc]2 | %17
w: |||
 B2- [EB-]2 [_DB-]2 [CB]4 [=B,A]2 | [B,G]4 [EB]2 D2- [DF]2 [B,DG]2 | .B,6 z6 |] %20
w: |||
V:2
 E,,2 B,,2 E,2 E,,2 B,,2 E,2 | E,,2 A,,2 E,2 E,,2 B,,2 E,2 | B,,,2 B,,2 D,2 B,,,2 B,,2 D,2 | %3
 B,,,2 B,,2 D,2 E,,2 B,,2 E,2 | E,,2 B,,2 E,2 E,,2 B,,2 E,2 | E,,2 A,,2 E,2 E,,2 B,,2 E,2 | %6
 F,,2 B,,2 F,2 F,,2 B,,2 F,2 | F,,2 B,,2 F,2 B,,,2 B,,2 F,2 | %8
 [E,B,] .[E,B,]3 [E,B,]2 [E,=A,]4 [E,A,]2 | z4 A,2 G,6 | E,2 E,2 [_D,G,]2 [C,G,]4 [C,C]2 | %11
 [CF]4 =B,2 _B,6 | B,,2 D,2 F,2 B,4 A,2 | G,4 F,2 E,4 [E,B,E]2 | %14
 [B,,G,]4 [B,,G,]2 [B,,F,]2 D,2 F,2 | z2 D2 C2 B,6 | [E,B,]2 [E,B,]2 [E,B,]2 [E,=A,]4 [E,A,]2 | %17
 z2 A,2 [=E,G,]2 [F,A,]4 [A,,F,]2 | [B,,E,]4 [B,,G,]2 z2 A,2 B,,2 | z2 C2 B,2 B,6 |] %20
V:3
 x12 | x12 | x6[K:bass] x4[K:treble] x2 | x12 | x12 | x12 | x12 | x12 | x12 | .[B,G]6 z6 | x12 | %11
 z4 E2 D6 | x12 | B,4 A,2 G,4 G2 | x12 | .E6 z6 | x12 | .[B,G]6 z6 | z6 .[B,G]6 | [E,G,E]12 |] %20
V:4
 x12 | x12 | x12 | x12 | x12 | x12 | x12 | x12 | x12 | E,12 | x12 | F,12 | x12 | x12 | x12 | E,12 | %16
 x12 | .E,6 z6 | z6 .B,,6 | E,,12 |] %20

